!!!COM: des Prez, Josquin
!!!CDT: ~1450-1521/08/27
!!!OTL: Ut Phebi radiis / Ut re mi fa sol la
!!!AGN: Motet
!!!SCT: NJE 25.10
!!!SCA: New Josquin Edition 25.10
!!!voices: 4
**kern	**text	**kern	**text	**kern	**text	**kern	**text
*staff4	*	*staff3	*	*staff2	*	*staff1	*
*Ivox	*	*Ivox	*	*Ivox	*	*Ivox	*
*I"Bassus	*	*I"Tenor	*	*I"Altus	*	*I"Superius	*
*I'B	*	*I'T	*	*I'A	*	*I'S	*
*>[A,B]	*	*>[A,B]	*	*>[A,B]	*	*>[A,B]	*
*>A	*	*>A	*	*>A	*	*>A	*
*clefF4	*	*clefGv2	*	*clefGv2	*	*clefG2	*
*k[]	*	*k[b-]	*	*k[]	*	*k[]	*
*M2/1	*	*M2/1	*	*M2/1	*	*M2/1	*
*met(C|)	*	*met(C|)	*	*met(C|)	*	*met(C|)	*
!!section: Prima pars: Ut Phebi radiis/Ut re me fa sol la
=1-	=1-	=1-	=1-	=1-	=1-	=1-	=1-
!LO:TX:Z=12:t=Quasi-canon at the upper 4th (B-->T, one breve) based on solmization syllables	!	!	!	!	!	!	!
0C	Ut	0r	.	0r	.	0r	.
=2	=2	=2	=2	=2	=2	=2	=2
0r	.	0F	Ut	0r	.	0c	Ut
=3	=3	=3	=3	=3	=3	=3	=3
0r	.	0r	.	0F	Ut	0f	Phe-
=4	=4	=4	=4	=4	=4	=4	=4
0r	.	0r	.	0B-i	Phe-	1d	-bi
.	.	.	.	.	.	[1g	ra-
=5	=5	=5	=5	=5	=5	=5	=5
0r	.	0r	.	1G	-bi	2g/]	.
.	.	.	.	.	.	2g/	-di-
.	.	.	.	[1c	ra-	1g	-is
=6	=6	=6	=6	=6	=6	=6	=6
0r	.	0r	.	2c\]	.	1r	.
.	.	.	.	2c\	-di-	.	.
.	.	.	.	1c	-is	1g	so-
=7	=7	=7	=7	=7	=7	=7	=7
0r	.	0r	.	1r	.	1a	-ror
.	.	.	.	1c	so-	1cc	-ob-
=8	=8	=8	=8	=8	=8	=8	=8
0r	.	0r	.	1d	-ror	2b\	-vi-
.	.	.	.	.	.	1a	-a
.	.	.	.	1f	-ob-	.	.
.	.	.	.	.	.	[2cc\	si-
=9	=9	=9	=9	=9	=9	=9	=9
0r	.	0r	.	2e\	-vi-	2cc\]	.
.	.	.	.	2d\	-a	2b\	-de-
.	.	.	.	1f	si-	2a/	-ra
.	.	.	.	.	.	[2cc\	lu-
=10	=10	=10	=10	=10	=10	=10	=10
0C	Ut	0r	.	2e\	-de-	2cc\]	.
.	.	.	.	2d\	-ra	4b\	.
.	.	.	.	.	.	4a/	.
.	.	.	.	1e	lu-	1g	.
=11	=11	=11	=11	=11	=11	=11	=11
0D	re	0F	Ut	1.d	.	1.f	.
.	.	.	.	4c\	.	4e/	.
.	.	.	.	4B\	.	4d/	.
=12	=12	=12	=12	=12	=12	=12	=12
0r	.	0G	re	1.B	.	1d	-na,
.	.	.	.	.	.	[1g	Ut
.	.	.	.	4A/	.	.	.
.	.	.	.	4G/	.	.	.
=13	=13	=13	=13	=13	=13	=13	=13
0r	.	0r	.	1G	-na,	1g]	.
.	.	.	.	[1c	Ut	1a	re-
=14	=14	=14	=14	=14	=14	=14	=14
0r	.	0r	.	1c]	.	2.g/	-ges
.	.	.	.	.	.	4a/	.
.	.	.	.	1d	re-	1b	.
=15	=15	=15	=15	=15	=15	=15	=15
0r	.	0r	.	2.c\	-ges	2cc\	Sa-
.	.	.	.	.	.	2cc\	-lo-
.	.	.	.	4d\	.	.	.
.	.	.	.	1e	.	1cc	-mon
=16	=16	=16	=16	=16	=16	=16	=16
0r	.	0r	.	2f\	Sa-	2r	.
.	.	.	.	2f\	-lo-	2cc\	sa-
.	.	.	.	1f	-mon	2cc\	-pi-
.	.	.	.	.	.	[2dd\	-en-
=17	=17	=17	=17	=17	=17	=17	=17
0r	.	0r	.	2r	.	4dd\]	.
.	.	.	.	.	.	4cc\	.
.	.	.	.	1f	sa-	4dd\	.
.	.	.	.	.	.	4cc\	.
.	.	.	.	.	.	1a	.
.	.	.	.	2d\	-pi-	.	.
=18	=18	=18	=18	=18	=18	=18	=18
0r	.	0r	.	2e\	-en-	2g/	-tis
.	.	.	.	2c\	-tis	2a/	no-
.	.	.	.	2d\	no-	2b\	-mi-
.	.	.	.	2e\	-mi-	[2cc\	-ne
=19	=19	=19	=19	=19	=19	=19	=19
0r	.	0r	.	2.f\	-ne	4cc\]	.
.	.	.	.	.	.	4b\	.
.	.	.	.	.	.	4a/	.
.	.	.	.	4e\	.	4g/	.
.	.	.	.	4d\	.	4f/	.
.	.	.	.	4c\	.	4e/	.
.	.	.	.	2B-i\	.	[2g/	cunc-
=20	=20	=20	=20	=20	=20	=20	=20
0C	Ut	0r	.	2c\	cunc-	4g/]	.
.	.	.	.	.	.	4f/	.
.	.	.	.	2A/	.	1f	.
.	.	.	.	1G	.	.	.
.	.	.	.	.	.	2e/	.
=21	=21	=21	=21	=21	=21	=21	=21
0D	re	0F	Ut	2F/	-tos,	0f	-tos,
.	.	.	.	2.f\	cunc-	.	.
.	.	.	.	4e\	.	.	.
.	.	.	.	[2d\	.	.	.
=22	=22	=22	=22	=22	=22	=22	=22
0E	mi	0G	re	4d\]	.	0r	.
.	.	.	.	4c\	.	.	.
.	.	.	.	4B-i\	.	.	.
.	.	.	.	4A/	.	.	.
.	.	.	.	2B-i\	.	.	.
.	.	.	.	4A/	.	.	.
.	.	.	.	4G/	.	.	.
=23	=23	=23	=23	=23	=23	=23	=23
0r	.	0A	mi	2F/	-tos,	1r	.
.	.	.	.	1c	.	.	.
.	.	.	.	.	.	1c	Ut
.	.	.	.	[2F/	Ut	.	.
=24	=24	=24	=24	=24	=24	=24	=24
0r	.	0r	.	2F/]	.	1d	re-
.	.	.	.	1G	re-	.	.
.	.	.	.	.	.	2.e/	-mi
.	.	.	.	2A/	-mi	.	.
.	.	.	.	.	.	4c/	.
=25	=25	=25	=25	=25	=25	=25	=25
0r	.	0r	.	2.F/	pon-	4d/	pon-
.	.	.	.	.	.	4e/	.
.	.	.	.	.	.	1f	.
.	.	.	.	4A/	.	.	.
.	.	.	.	1G	.	.	.
.	.	.	.	.	.	2e/	.
=26	=26	=26	=26	=26	=26	=26	=26
0r	.	0r	.	1F	-tum,	2f/	.
.	.	.	.	.	.	2a/	.
.	.	.	.	1c	ut	2g/	.
.	.	.	.	.	.	[2a/	.
=27	=27	=27	=27	=27	=27	=27	=27
0r	.	0r	.	1d	re-	2a/]	.
.	.	.	.	.	.	4g/	.
.	.	.	.	.	.	4f/	.
.	.	.	.	2.e\	-mi	2g/	.
.	.	.	.	.	.	2e/	.
.	.	.	.	4c\	.	.	.
=28	=28	=28	=28	=28	=28	=28	=28
0r	.	0r	.	4d\	pon-	1f	-tum
.	.	.	.	4e\	.	.	.
.	.	.	.	1f	.	.	.
.	.	.	.	.	.	1g	.
.	.	.	.	2e\	.	.	.
=29	=29	=29	=29	=29	=29	=29	=29
0r	.	0r	.	2f\	-tum	2a/	.
.	.	.	.	2d\	que-	2f/	que-
.	.	.	.	2e\	-ren-	2g/	-ren-
.	.	.	.	2f\	-tum	2a/	-tum
=30	=30	=30	=30	=30	=30	=30	=30
0r	.	0r	.	2d\	vel	2f/	vel
.	.	.	.	2e\	-le-	2g/	-le-
.	.	.	.	2.f\	-ris	1a	-ris
.	.	.	.	4d\	.	.	.
=31	=31	=31	=31	=31	=31	=31	=31
0C	Ut	0r	.	2e\	au-	2g/	au-
.	.	.	.	1f	.	2f/	.
.	.	.	.	.	.	1g	.
.	.	.	.	2e\	.	.	.
=32	=32	=32	=32	=32	=32	=32	=32
0D	re	0F	Ut	0f	-rum,	2.f/	-rum,
.	.	.	.	.	.	4g/	.
.	.	.	.	.	.	4a/	.
.	.	.	.	.	.	4b-i\	.
.	.	.	.	.	.	2a/	.
=33	=33	=33	=33	=33	=33	=33	=33
0E	mi	0G	re	0r	.	4g/	.
.	.	.	.	.	.	4f/	.
.	.	.	.	.	.	2.g/	.
.	.	.	.	.	.	4f/	.
.	.	.	.	.	.	4e/	.
.	.	.	.	.	.	4d/	.
=34	=34	=34	=34	=34	=34	=34	=34
0F	fa	0A	mi	1r	.	1c	.
.	.	.	.	1c	Ut	[1f	Ut
=35	=35	=35	=35	=35	=35	=35	=35
0r	.	0B-	fa	1.d	re-	1f]	.
.	.	.	.	.	.	1g	re-
.	.	.	.	2e\	-mi	.	.
=36	=36	=36	=36	=36	=36	=36	=36
0r	.	0r	.	2.f\	fa-	1a	-mi
.	.	.	.	4e\	.	.	.
.	.	.	.	4d\	.	[1b-i	fa-
.	.	.	.	4c\	.	.	.
.	.	.	.	[2B-\	.	.	.
=37	=37	=37	=37	=37	=37	=37	=37
0r	.	0r	.	2B-\]	.	1b-]	.
.	.	.	.	4A/	.	.	.
.	.	.	.	4G/	.	.	.
.	.	.	.	1F	-ber	1a	-ber
=38	=38	=38	=38	=38	=38	=38	=38
0r	.	0r	.	2r	.	2r	.
.	.	.	.	2f\	in-	2a/	in-
.	.	.	.	2e\	-star	2g/	-star
.	.	.	.	2c\	.	[2a/	ha-
=39	=39	=39	=39	=39	=39	=39	=39
0r	.	0r	.	1d	ha-	2a/]	.
.	.	.	.	.	.	4g/	.
.	.	.	.	.	.	4f/	.
.	.	.	.	1c	-bens	2a/	.
.	.	.	.	.	.	2g/	-bens
=40	=40	=40	=40	=40	=40	=40	=40
0r	.	0r	.	2r	.	2r	.
.	.	.	.	2f\	su-	2a/	su-
.	.	.	.	2e\	-per	2g/	-per
.	.	.	.	[2f\	a-	[2a/	a-
=41	=41	=41	=41	=41	=41	=41	=41
0r	.	0r	.	2f\]	.	2a/]	.
.	.	.	.	4e\	.	4g/	.
.	.	.	.	4d\	.	4f/	.
.	.	.	.	2f\	e-	2a/	e-
.	.	.	.	2e\	-ra	2g/	-ra
=42	=42	=42	=42	=42	=42	=42	=42
0r	.	0r	.	4c\	pen-	2e/	pen-
.	.	.	.	4d\	.	.	.
.	.	.	.	4e\	.	4c/	.
.	.	.	.	4f\	.	4d/	.
.	.	.	.	2g\	.	4e/	.
.	.	.	.	.	.	4f/	.
.	.	.	.	[2c\	.	[2g/	.
=43	=43	=43	=43	=43	=43	=43	=43
0C	Ut	0r	.	2c\]	.	4g/]	.
.	.	.	.	.	.	4f/	.
.	.	.	.	2A/	.	1f	.
.	.	.	.	1G	.	.	.
.	.	.	.	.	.	2e/	.
=44	=44	=44	=44	=44	=44	=44	=44
0D	re	0F	Ut	2F/	-nas,	0f	-nas,
.	.	.	.	4f\	pen-	.	.
.	.	.	.	4e\	.	.	.
.	.	.	.	4d\	.	.	.
.	.	.	.	4c\	.	.	.
.	.	.	.	2d\	.	.	.
=45	=45	=45	=45	=45	=45	=45	=45
0E	mi	0G	re	2B\	-nas,	0r	.
.	.	.	.	4g\	pen-	.	.
.	.	.	.	4f\	.	.	.
.	.	.	.	4e\	.	.	.
.	.	.	.	4d\	.	.	.
.	.	.	.	2e\	.	.	.
=46	=46	=46	=46	=46	=46	=46	=46
0F	fa	0A	mi	2c\	-nas,	1r	.
.	.	.	.	4a\	pen-	.	.
.	.	.	.	4g\	.	.	.
.	.	.	.	4f\	.	1a	pen-
.	.	.	.	4e\	.	.	.
.	.	.	.	[2f\	.	.	.
=47	=47	=47	=47	=47	=47	=47	=47
0G	sol	0B-	fa	4f\]	.	2g/	.
.	.	.	.	4e\	.	.	.
.	.	.	.	4d\	.	2.b-i\	.
.	.	.	.	4c\	.	.	.
.	.	.	.	1d	.	.	.
.	.	.	.	.	.	4a/	.
.	.	.	.	.	.	4g/	.
.	.	.	.	.	.	4f/	.
=48	=48	=48	=48	=48	=48	=48	=48
0r	.	0c	sol	1c	-nas,	1e	-nas,
.	.	.	.	2r	.	1g	Ut
.	.	.	.	[2c\	Ut	.	.
=49	=49	=49	=49	=49	=49	=49	=49
0r	.	0r	.	2c\]	.	1a	re-
.	.	.	.	1d	re-	.	.
.	.	.	.	.	.	1bn	-mi
.	.	.	.	[2e\	-mi	.	.
=50	=50	=50	=50	=50	=50	=50	=50
0r	.	0r	.	2e\]	.	1cc	fas
.	.	.	.	1f	fas	.	.
.	.	.	.	.	.	1dd	sol-
.	.	.	.	[2g\	sol-	.	.
=51	=51	=51	=51	=51	=51	=51	=51
0r	.	0r	.	2g\]	.	2.b\	-va
.	.	.	.	2.e\	-va	.	.
.	.	.	.	.	.	4g/	.
.	.	.	.	.	.	2g/	-ces
.	.	.	.	4c\	.	.	.
.	.	.	.	2c\	-ces	[2cc\	tra-
=52	=52	=52	=52	=52	=52	=52	=52
0r	.	0r	.	1f	tra-	2cc\]	.
.	.	.	.	.	.	2a/	-du-
.	.	.	.	2d\	-du-	2b\	-ce-
.	.	.	.	2e\	-ce-	[2cc\	-re
=53	=53	=53	=53	=53	=53	=53	=53
0r	.	0r	.	2.f\	-re	4cc\]	.
.	.	.	.	.	.	4b\	.
.	.	.	.	.	.	4a/	.
.	.	.	.	4e\	.	4g/	.
.	.	.	.	4d\	.	2f/	.
.	.	.	.	4c\	.	.	.
.	.	.	.	4B\	.	[2g/	mer-
.	.	.	.	4A/	.	.	.
=54	=54	=54	=54	=54	=54	=54	=54
0r	.	0r	.	2G/	.	4g/]	.
.	.	.	.	.	.	4f/	.
.	.	.	.	1c	mer-	1a	.
.	.	.	.	2B\	.	4g/	.
.	.	.	.	.	.	4f/	.
=55	=55	=55	=55	=55	=55	=55	=55
0r	.	0r	.	1c	-ces,	[0e	-ces,
.	.	.	.	[1G	Ut	.	.
=56	=56	=56	=56	=56	=56	=56	=56
0C	Ut	0r	.	1G]	.	0e]	.
.	.	.	.	[1A	re	.	.
=57	=57	=57	=57	=57	=57	=57	=57
0D	re	0F	Ut	1A]	.	0r	.
.	.	.	.	[1Bn	mi	.	.
=58	=58	=58	=58	=58	=58	=58	=58
0E	mi	0G	re	1B]	.	0r	.
.	.	.	.	[1c	fas	.	.
=59	=59	=59	=59	=59	=59	=59	=59
0F	fa	0A	mi	1c]	.	0r	.
.	.	.	.	[1d	so-	.	.
=60	=60	=60	=60	=60	=60	=60	=60
0G	sol	0B-	fa	1d]	.	0r	.
.	.	.	.	[1e	-la	.	.
=61	=61	=61	=61	=61	=61	=61	=61
0A	la	0c	sol	1e]	.	0r	.
.	.	.	.	1r	.	.	.
=62	=62	=62	=62	=62	=62	=62	=62
1r	.	[0d	la	0f	Pe-	0a	Pe-
1D	Pe-	.	.	.	.	.	.
=63	=63	=63	=63	=63	=63	=63	=63
1D	-tri	0d]	.	1f	-tri	1a	-tri
1G	cur-	.	.	1g	cur-	1b-i	cur-
=64	=64	=64	=64	=64	=64	=64	=64
2G\	-re-	[0d	la	2g\	-re-	2b-i\	-re-
2G\	-re	.	.	2g\	-re	2b-i\	-re
1G	pro-	.	.	1g	pro-	1b-i	pro-
=65	=65	=65	=65	=65	=65	=65	=65
1D	-ra,	0d_	.	1f	-ra,	1a	-ra,
1r	.	.	.	1r	.	1r	.
=66	=66	=66	=66	=66	=66	=66	=66
1B-	Sic	0d_	.	1f	Sic	1b-i	Sic
2B-i\	su-	.	.	2f\	su-	2b-i\	su-
[2F\	-per	.	.	[2f\	-per	[2a/	-per
=67	=67	=67	=67	=67	=67	=67	=67
2F\]	.	0d]	.	2f\]	.	2a/]	.
2F\	om-	.	.	2f\	om-	2a/	om-
2G\	-ne	.	.	2B-i\	-ne	2g/	-ne
[2G\	quod	.	.	[2B-i\	quod	[2g/	quod
=68	=68	=68	=68	=68	=68	=68	=68
2G\]	.	[0dl	la	2B-\]	.	2g/]	.
2D\	est	.	.	2A/	est	2f/	est
1G	re-	.	.	1B-i	re-	1g	re-
=69	=69	=69	=69	=69	=69	=69	=69
2F\	-gnas,	0d_	.	2A/	-gnas,	2a/	-gnas,
1G	O	.	.	2G/	O	1b-i	O
.	.	.	.	4B-i\	vir-	.	.
.	.	.	.	4c\	.	.	.
[2D\	vir-	.	.	4d\	.	[2a/	vir-
.	.	.	.	4e\	.	.	.
=70	=70	=70	=70	=70	=70	=70	=70
2D\]	.	0d_	.	2f\	.	2a/]	.
2E\	-go	.	.	2g\	-go	2g/	-go
1F	Ma-	.	.	4f\	Ma-	1a	Ma-
.	.	.	.	4e\	.	.	.
.	.	.	.	4d\	.	.	.
.	.	.	.	4c\	.	.	.
=71	=71	=71	=71	=71	=71	=71	=71
0G	-ri-	0d_	.	2B-i\	.	0b-i	-ri-
.	.	.	.	2G/	.	.	.
.	.	.	.	1g	-ri-	.	.
=72	=72	=72	=72	=72	=72	=72	=72
0Dl	-a.	0d]	.	0fl	-a.	0al	-a.
!!LO:LB:i:g=z
=73||	=73||	=73||	=73||	=73||	=73||	=73||	=73||
*>B	*	*>B	*	*>B	*	*>B	*
*clefF4	*	*clefGv2	*	*clefGv2	*	*clefG2	*
*k[]	*	*k[b-]	*	*k[]	*	*k[]	*
*M2/1	*	*M2/1	*	*M2/1	*	*M2/1	*
*met(C|)	*	*met(C|)	*	*met(C|)	*	*met(C|)	*
!!!OMD: Secunda pars: Latius in numerum canit/La sol fa mi re ut
!	!	!LO:TX:Z=18:t=Quasi-canon at the lower 4th (T-->B, one breve) based on solmization syllables	!	!	!	!	!
0r	.	0d	La	0r	.	0r	.
=74	=74	=74	=74	=74	=74	=74	=74
0A	La	0r	.	0r	.	1r	.
.	.	.	.	.	.	[1a	La-
=75	=75	=75	=75	=75	=75	=75	=75
0r	.	0r	.	1.d	La-	2a/]	.
.	.	.	.	.	.	2a/	-ti-
.	.	.	.	.	.	1a	-us
.	.	.	.	2d\	-ti-	.	.
=76	=76	=76	=76	=76	=76	=76	=76
0r	.	0r	.	1d	-us	1b	in
.	.	.	.	1c	in	[1cc	nu-
=77	=77	=77	=77	=77	=77	=77	=77
0r	.	0r	.	1.f	nu-	2cc\]	.
.	.	.	.	.	.	2cc\	-me-
.	.	.	.	.	.	1cc	-rum
.	.	.	.	2f\	-me-	.	.
=78	=78	=78	=78	=78	=78	=78	=78
0r	.	0r	.	1f	-rum	1a	ca-
.	.	.	.	1d	ca-	1f	-nit
=79	=79	=79	=79	=79	=79	=79	=79
0r	.	0r	.	2e\	-nit	1g	id
.	.	.	.	2c\	id	.	.
.	.	.	.	2d\	quo-	2f/	quo-
.	.	.	.	[2e\	-que	[2g/	-que
=80	=80	=80	=80	=80	=80	=80	=80
0r	.	0r	.	2e\]	.	2g/]	.
.	.	.	.	2f\	ce-	2a/	ce-
.	.	.	.	2e\	.	2g/	.
.	.	.	.	[2f\	.	[2a/	.
=81	=81	=81	=81	=81	=81	=81	=81
0r	.	0r	.	4f\]	.	2a/]	.
.	.	.	.	4e\	.	.	.
.	.	.	.	1d	.	4g/	.
.	.	.	.	.	.	4f/	.
.	.	.	.	.	.	1e	-li-
.	.	.	.	2c#i\	-li-	.	.
=82	=82	=82	=82	=82	=82	=82	=82
0r	.	0d	La	2.d\	-ca	1d	-ca
.	.	.	.	4e\	.	.	.
.	.	.	.	4f\	.	2.a/	tur-
.	.	.	.	4g\	.	.	.
.	.	.	.	[2f\	tur-	.	.
.	.	.	.	.	.	4b\	.
=83	=83	=83	=83	=83	=83	=83	=83
0A	La	0c	sol	2f\]	.	4cc\	.
.	.	.	.	.	.	4dd\	.
.	.	.	.	4e\	.	1cc	.
.	.	.	.	4d\	.	.	.
.	.	.	.	2e\	.	.	.
.	.	.	.	2f\	.	4b\	.
.	.	.	.	.	.	4a/	.
=84	=84	=84	=84	=84	=84	=84	=84
0G	sol	0r	.	1g	-ba,	2b\	.
.	.	.	.	.	.	2cc\	.
.	.	.	.	1r	.	1dd	-ba,
=85	=85	=85	=85	=85	=85	=85	=85
0r	.	0r	.	0d	Las-	1r	.
.	.	.	.	.	.	[1a	Las-
=86	=86	=86	=86	=86	=86	=86	=86
0r	.	0r	.	1c	-so	1a]	.
.	.	.	.	1e-i	le-	1g	-so
=87	=87	=87	=87	=87	=87	=87	=87
0r	.	0r	.	2d\	-ge	1b-	le-
.	.	.	.	2B-i\	.	.	.
.	.	.	.	2d\	fe-	2a/	-ge
.	.	.	.	2c\	.	[2cc\	fe-
=88	=88	=88	=88	=88	=88	=88	=88
0r	.	0r	.	2d\	.	4cc\]	.
.	.	.	.	.	.	4b-i\	.
.	.	.	.	1f	.	4a/	.
.	.	.	.	.	.	8g/L	.
.	.	.	.	.	.	8f/J	.
.	.	.	.	.	.	1g	.
.	.	.	.	2e\	.	.	.
=89	=89	=89	=89	=89	=89	=89	=89
0r	.	0r	.	2.f\	.	1f	-rens
.	.	.	.	4d\	.	.	.
.	.	.	.	1d	-rens	2r	.
.	.	.	.	.	.	2f/	e-
=90	=90	=90	=90	=90	=90	=90	=90
0r	.	0r	.	2r	.	2g/	-ter-
.	.	.	.	2c\	e-	2a/	-na
.	.	.	.	2d\	-ter-	1b-i	mu-
.	.	.	.	2e\	-na	.	.
=91	=91	=91	=91	=91	=91	=91	=91
0r	.	0r	.	2f\	mu-	2a/	-ne-
.	.	.	.	2g\	-ne-	2g/	-ra
.	.	.	.	2G/	-ra	2.dd\	mun-
.	.	.	.	[2d\	mun-	.	.
.	.	.	.	.	.	4cc\	.
=92	=92	=92	=92	=92	=92	=92	=92
0r	.	0d	La	4d\]	.	4b-i\	.
.	.	.	.	4c\	.	4a/	.
.	.	.	.	4B-i\	.	1a	.
.	.	.	.	4A/	.	.	.
.	.	.	.	1B-i	.	.	.
.	.	.	.	.	.	2g/	.
=93	=93	=93	=93	=93	=93	=93	=93
0A	La	0c	sol	1A	-do,	0a	-do&colon;
.	.	.	.	1c	.	.	.
=94	=94	=94	=94	=94	=94	=94	=94
0G	sool	0B-	fa	1.d	mun-	0r	.
.	.	.	.	2e\	.	.	.
=95	=95	=95	=95	=95	=95	=95	=95
0F	fa	0r	.	1.f	.	1r	.
.	.	.	.	.	.	1a	La
.	.	.	.	4e\	.	.	.
.	.	.	.	4d\	.	.	.
=96	=96	=96	=96	=96	=96	=96	=96
0r	.	0r	.	1e	-do&colon;	1g	sol
.	.	.	.	1a	La	2f/	fa
.	.	.	.	.	.	2d/	ta
=97	=97	=97	=97	=97	=97	=97	=97
0r	.	0r	.	1g	sol	1e	mi-
.	.	.	.	2f\	fa	1d	-na
.	.	.	.	2d\	ta	.	.
=98	=98	=98	=98	=98	=98	=98	=98
0r	.	0r	.	2e\	mi-	1r	.
.	.	.	.	2c\	-na	.	.
.	.	.	.	1B	cla-	1g	cla-
=99	=99	=99	=99	=99	=99	=99	=99
0r	.	0r	.	1A	-ra	1a	-ra
.	.	.	.	1a	pre-	1cc	pre-
=100	=100	=100	=100	=100	=100	=100	=100
0r	.	0r	.	1g	-lus-	1b	-lus-
.	.	.	.	1f	-tris	1dd	-tris
=101	=101	=101	=101	=101	=101	=101	=101
0r	.	0r	.	2e\	in	1cc	in
.	.	.	.	2a\	.	.	.
.	.	.	.	2g\	um-	2b\	um-
.	.	.	.	[2f\	.	[2a/	.
=102	=102	=102	=102	=102	=102	=102	=102
0r	.	0r	.	2f\]	.	2a/]	.
.	.	.	.	4e\	.	4g/	.
.	.	.	.	4d\	.	4f/	.
.	.	.	.	2e\	.	2g/	.
.	.	.	.	[2f\	.	[2a/	.
=103	=103	=103	=103	=103	=103	=103	=103
0r	.	0d	La	4f\]	.	4a/]	.
.	.	.	.	4e\	.	4g/	.
.	.	.	.	4d\	.	4f/	.
.	.	.	.	4c\	.	4e/	.
.	.	.	.	1d	.	1f	.
=104	=104	=104	=104	=104	=104	=104	=104
0A	La	0c	sol	2e\	-bra,	0e	-bra,
.	.	.	.	2.c\	um-	.	.
.	.	.	.	4d\	.	.	.
.	.	.	.	4e\	.	.	.
.	.	.	.	4f\	.	.	.
=105	=105	=105	=105	=105	=105	=105	=105
*	*	*	*	*M3/1	*	*	*
*	*	*	*	*met(3/2)	*	*	*
0G	sol	0B-	fa	3%2g	.	0r	.
.	.	.	.	3%2d	.	.	.
.	.	.	.	3%2e	.	.	.
=106	=106	=106	=106	=106	=106	=106	=106
0F	fa	0A	mi	3%2f	.	1r	.
.	.	.	.	3%2c	.	.	.
.	.	.	.	.	.	[1a	La
.	.	.	.	3%2d	.	.	.
=107	=107	=107	=107	=107	=107	=107	=107
*	*	*	*	*M2/1	*	*	*
*Q	*	*Q	*	*met(C|)	*	*Q	*
!!primary-mensuration: ZZY
0E	mi	0r	.	0e	-bra,	1a]	.
.	.	.	.	.	.	1g	sol
=108	=108	=108	=108	=108	=108	=108	=108
0r	.	0r	.	1r	.	2f/	fa
.	.	.	.	.	.	2e/	mi
.	.	.	.	1d	La	1f	ta
=109	=109	=109	=109	=109	=109	=109	=109
0r	.	0r	.	1c	sol	1e	na
.	.	.	.	2B-\	fa	2r	.
.	.	.	.	2A/	mi	[2a/	de
=110	=110	=110	=110	=110	=110	=110	=110
0r	.	0r	.	1B-i	ta	2a/]	.
.	.	.	.	.	.	2g/	.
.	.	.	.	1A	na	2a/	ma-
.	.	.	.	.	.	2cc\	.
=111	=111	=111	=111	=111	=111	=111	=111
0r	.	0r	.	2r	.	1b	.
.	.	.	.	1d	de	.	.
.	.	.	.	.	.	1a	-tre
.	.	.	.	2c\	.	.	.
=112	=112	=112	=112	=112	=112	=112	=112
0r	.	0r	.	2d\	ma-	2r	.
.	.	.	.	2f\	.	1d	re-
.	.	.	.	1e	.	.	.
.	.	.	.	.	.	2c/	.
=113	=113	=113	=113	=113	=113	=113	=113
0r	.	0r	.	1.d	-tre	4d/	-cen-
.	.	.	.	.	.	4e/	.
.	.	.	.	.	.	4f/	.
.	.	.	.	.	.	4g/	.
.	.	.	.	.	.	2a/	.
.	.	.	.	2B-i\	re-	[2g/	.
=114	=114	=114	=114	=114	=114	=114	=114
0r	.	0r	.	2c\	-cen-	2g/]	.
.	.	.	.	2d\	-ti-	2f/	-ti-
.	.	.	.	4G/	-or	4g/	-or
.	.	.	.	4F/	.	4a/	.
.	.	.	.	4G/	.	4b-\	.
.	.	.	.	4A/	.	4cc\	.
=115	=115	=115	=115	=115	=115	=115	=115
0r	.	0d	La	2B-i\	.	2dd\	.
.	.	.	.	2c\	or-	1cc	or-
.	.	.	.	1G	-tus,	.	.
.	.	.	.	.	.	2b\	.
=116	=116	=116	=116	=116	=116	=116	=116
0A	La	0c	sol	2r	.	0cc	-tus,
.	.	.	.	2.c\	or-	.	.
.	.	.	.	4d\	.	.	.
.	.	.	.	4e\	.	.	.
.	.	.	.	4f\	.	.	.
=117	=117	=117	=117	=117	=117	=117	=117
0G	sol	0B-	fa	2g\	.	0r	.
.	.	.	.	1f	.	.	.
.	.	.	.	2e\	.	.	.
=118	=118	=118	=118	=118	=118	=118	=118
0F	fa	0A	mi	2f\	-tus,	0r	.
.	.	.	.	4F/	or-	.	.
.	.	.	.	4G/	.	.	.
.	.	.	.	4A/	.	.	.
.	.	.	.	4B-i\	.	.	.
.	.	.	.	4c\	.	.	.
.	.	.	.	4d\	.	.	.
=119	=119	=119	=119	=119	=119	=119	=119
0E	mi	0G	re	2e\	.	0r	.
.	.	.	.	1d	.	.	.
.	.	.	.	2c#i\	.	.	.
=120	=120	=120	=120	=120	=120	=120	=120
0D	re	0r	.	1d	-tus,	1r	.
.	.	.	.	2d\	La	[1dd	La
.	.	.	.	2c\	sol	.	.
=121	=121	=121	=121	=121	=121	=121	=121
0r	.	0r	.	1B-i	fa	1dd]	.
.	.	.	.	1A	mi	1cc	sol
=122	=122	=122	=122	=122	=122	=122	=122
0r	.	0r	.	2G/	re	1b-i	fa
.	.	.	.	1d	ta	.	.
.	.	.	.	.	.	2a/	mi
.	.	.	.	2B-i\	qui-	2g/	re
=123	=123	=123	=123	=123	=123	=123	=123
0r	.	0r	.	2c\	-dem	1a	ta
.	.	.	.	1d	na	.	.
.	.	.	.	.	.	2f/	qui-
.	.	.	.	4c\	.	2g/	-dem
.	.	.	.	4B-i\	.	.	.
=124	=124	=124	=124	=124	=124	=124	=124
0r	.	0r	.	2A/	.	1a	na
.	.	.	.	1d	non	.	.
.	.	.	.	.	.	2f/	non
.	.	.	.	2e\	vi-	2g/	vi-
=125	=125	=125	=125	=125	=125	=125	=125
0r	.	0r	.	1f	-o-	1a	-o-
.	.	.	.	1g	-la-	1b-i	.
=126	=126	=126	=126	=126	=126	=126	=126
0r	.	0r	.	1f	-ta,	1a	-la-
.	.	.	.	[1a	La	1f	.
=127	=127	=127	=127	=127	=127	=127	=127
0r	.	0r	.	1a]	.	1g	.
.	.	.	.	[1g	sol	1b-	.
=128	=128	=128	=128	=128	=128	=128	=128
0r	.	0d	La	1g]	.	0a	-ta,
.	.	.	.	[1f	fa	.	.
=129	=129	=129	=129	=129	=129	=129	=129
0A	La	0c	sol	1f]	.	0r	.
.	.	.	.	[1e	mi	.	.
=130	=130	=130	=130	=130	=130	=130	=130
0G	sol	0B-	fa	1e]	.	0r	.
.	.	.	.	[1d	re	.	.
=131	=131	=131	=131	=131	=131	=131	=131
0F	fa	0A	mi	1d]	.	0r	.
.	.	.	.	[1c	ut	.	.
=132	=132	=132	=132	=132	=132	=132	=132
0E	mi	0G	re	1c]	.	0r	.
.	.	.	.	1c	ro-	.	.
=133	=133	=133	=133	=133	=133	=133	=133
0D	re	0F	ut	2d\	-re	1r	.
.	.	.	.	1f	ta	.	.
.	.	.	.	.	.	1f	Ut
.	.	.	.	4e\	.	.	.
.	.	.	.	4d\	.	.	.
=134	=134	=134	=134	=134	=134	=134	=134
[0C	ut,	0c	ro-	1.e	.	1g	ro-
.	.	.	.	.	.	2g/	-re
.	.	.	.	[2c\	.	[2a/	ta
=135	=135	=135	=135	=135	=135	=135	=135
0C_	.	1c	-re	2c\]	.	2a/]	.
.	.	.	.	4B-i\	.	4g/	.
.	.	.	.	4A/	.	4f/	.
.	.	[1c	ta-	1G	na	1e	na
=136	=136	=136	=136	=136	=136	=136	=136
0C]	.	1c]	.	1r	.	1g	Ge-
.	.	1G	-na	1g	Ge-	2g/	-de-
.	.	.	.	.	.	[2e/	-on
=137	=137	=137	=137	=137	=137	=137	=137
[0C	ut,	1g	Ge-	2g\	-de-	2e/]	.
.	.	.	.	1e	-on	4d/	.
.	.	.	.	.	.	4c/	.
.	.	2g\	-de-	.	.	1c	quo.
.	.	[2e\	-on	4d\	.	.	.
.	.	.	.	4c\	.	.	.
=138	=138	=138	=138	=138	=138	=138	=138
0C_	.	2e\]	.	1c	quo.	1r	.
.	.	4d\	.	.	.	.	.
.	.	4c\	.	.	.	.	.
.	.	1c	quo.	1r	.	[1e	Rex,
=139	=139	=139	=139	=139	=139	=139	=139
0C_	.	1r	.	1.c	Rex,	1e]	.
.	.	[1c	Rex,	.	.	1e	O
.	.	.	.	2G/	O	.	.
=140	=140	=140	=140	=140	=140	=140	=140
0C_	.	1c]	.	2A/	Chri-	1e	Chri-
.	.	.	.	2G/	-ste	.	.
.	.	1G	O	[1c	Je-	1e	-ste
=141	=141	=141	=141	=141	=141	=141	=141
0C_	.	2A/	Chri-	2c\]	.	1.e	Je-
.	.	2G/	-ste	2d\	.	.	.
.	.	[1c	Je-	1e	-su,	.	.
.	.	.	.	.	.	2f/	.
=142	=142	=142	=142	=142	=142	=142	=142
*	*	*	*	*M2/1	*	*	*
*	*	*	*	*met(3/2)	*	*	*
0C]	.	2c\]	.	3%2G	nos-	[0g	-su,
.	.	2d\	.	.	.	.	.
.	.	.	.	3%2.c	.	.	.
.	.	1e	-su,	.	.	.	.
.	.	.	.	3d\	.	.	.
=143	=143	=143	=143	=143	=143	=143	=143
*	*	*M3/1	*	*	*	*	*
*	*	*met(3/2)	*	*	*	*	*
[0C	ut	3%2G	nos-	3%2.e	-tri	0g]	.
.	.	3%2.c	.	.	.	.	.
.	.	.	.	3f\	.	.	.
.	.	.	.	3%2g	de-	.	.
.	.	3d\	.	.	.	.	.
=144	=144	=144	=144	=144	=144	=144	=144
*	*	*	*	*	*	*M3/1	*
*	*	*	*	*	*	*met(3/2)	*
0C_	.	3%2.e	-tri	3%2c	-us	3%4g	nos-
.	.	.	.	3%2.g	al-	.	.
.	.	3f\	.	.	.	.	.
.	.	3%2g	de-	.	.	3%2e	-tri
.	.	.	.	3f\	-te	.	.
=145	=145	=145	=145	=145	=145	=145	=145
0C_	.	3%2c	-us	3e\	me-	3%2.g	de-
.	.	.	.	3d\	.	.	.
.	.	3%2.g	al-	3%2e	-men	.	.
.	.	.	.	.	.	3f/	.
.	.	.	.	3%2c	-to,	3e/	.
.	.	3f\	-te	.	.	3d/	.
=146	=146	=146	=146	=146	=146	=146	=146
0C_	.	3e\	me-	3%2r	.	3%2c	-us
.	.	3d\	.	.	.	.	.
.	.	3%2.e	-men	3%2.g	al-	3%2.cc	al-
.	.	3d\	.	3f\	-te	3b-i\	-te
=147	=147	=147	=147	=147	=147	=147	=147
0C_	.	3c\	.	3e\	me-	3%2a	me-
.	.	3B-\	.	3d\	.	.	.
.	.	3%4c	.	3%2.e	-men-	3%2.g	-men-
.	.	.	.	3d\	.	6f/	.
.	.	.	.	.	.	6g/	.
=148	=148	=148	=148	=148	=148	=148	=148
0C]	.	3%2A	.	3c\	.	3%2.f	.
.	.	.	.	3B\	.	.	.
.	.	3%4G	.	3%4c	.	.	.
.	.	.	.	.	.	6e/	.
.	.	.	.	.	.	6f/	.
.	.	.	.	.	.	3e/	.
.	.	.	.	.	.	6f/	.
.	.	.	.	.	.	6e/	.
=149	=149	=149	=149	=149	=149	=149	=149
0Fl	-to.	0Fl	-to.	0cl	-to.	0fl	-to.
==	==	==	==	==	==	==	==
*-	*-	*-	*-	*-	*-	*-	*-
!!!RDF**kern: l=long note in original notation
!!!RDF**kern: i=editorial accidental
!!!ENC: Will Watson 2011/12/04
!!!END: 2011/12/04/
!!!EED: Jesse Rodin
!!!EEV: 2017/03/30/
!!attribution-level@Jos: 2 (provisionally attributable [parentheses checkmark])
!!!ONB: Translated from MusicXML and edited on 2017/03/30/ by Craig Sapp
!!muse2ps: C^@{COM}\n@{SCT}^i2I150v90,90,90,120c105z18l2700t130
